X: 84
T:Rakes of Mallow
N: page 28
N: heptatonic
M:4/4
L:1/8
R:Polka
N:http://celtic.stanford.edu/pub/tunes/abc.tunes/xip
N:<cfalt@trytel.com> www.trytel.com/~cfalt/Fiddle/The_List.abc
K:G
 "G"G2B2 G2B2|G2B2 cBAG|"D"F2A2 F2A2|F2A2 dcBA|\
"G"G2B2 G2B2|G2B2 d4|"C"cBAG "D7"FGAc|[1"G"B2G2 G4:|[2 "G" B2G2G2|
|:Bd|"G"g2fe d2c2|B2c2 d4|g2fe d2c2|B2c2 "D"A4|\
"G"g2fe d2c2|B2c2 d3B|"C"cBAG "D7"FGAc|[1"G"B2G2 G2:|[2B2G2 G4|
